X: 22
T: No_2_First_Raingod_Song.krn
N: Derived from No_2_First_Raingod_Song.krn
%%abc-version 2.0
%%abcx-abcm2ps-target-version 5.9.1 (29 Sep 2008)
%%abc-creator hum2abc beta
%%abcx-conversion-date 2019/03/15 08:25:35
%%humdrum-veritas 1994522492
%%humdrum-veritas-data 4221041477
%%linebreak <none>
%%barnumbers 0
L: 1/8
M: 3/4
K: B clef=bass
[K:clef=bass][M:3/4]B,F,/F,/ F,F, F,F, ]|:  
DD FF F/F/D | 
FF F/D/D/B,/ F,/F,3/ | 
[M:2/4]B,/G,/G,/G,/ F,D, | 
(3F,F,D, G, z | 
G,G, F,/F,/D, | 
G,G, F,/F,/D, | 
[M:3/4]G,/G,G,/ F,/D,/D, D, z | 
DD D/B,/G,/F,/ G,G, | 
CC C/B,/G,/F,/ G,G, | 
G,/G,/D, G,/G,/F, D, z | 
[M:2/4]D,/D,D,/ D,D, :|]  



